X: 061
M: C
L: 1/8
K: A
(f/g/) | a>gf>e c>Ad>f | g>ef>a ge-ef/g/ | a>gf>e d>cB>f | ecBc {G}A2A ||
 f/g/  | a>gf>e c>Ad>f | g>ef>a ge-ef/g/ | a>gf>e f<ag>b | e<cB>c A2-A |]


